!!!COM: Scriabin, Alexander
!!!OTL@@FR: Mazurka en do dièse mineur
!!!OTL@@EN: Mazurka in C# Minor
!!!OPR@@FR: 9 Mazurkas
!!!OPR@@EN: 9 Mazurkas
!!!OPS: 25
!!!ONM: 5
!!!ODT: 1899
!!!AGN: Mazurka
**kern	**kern	**dynam
*staff2	*staff1	*staff1/2
*Ipiano	*Ipiano	*
*clefF4	*clefG2	*
*k[f#c#g#d#]	*k[f#c#g#d#]	*
*c#:	*c#:	*
*M3/4	*M3/4	*
=1	=1	=1
*^	*	*
.	16qqCC#\LL	.	.
.	16qqGG#\JJ	.	.
*	*	*^	*
2G#	2C#	8.eeL	2e	.
.	.	16dd#Jk	.	.
.	.	4g#	.	.
4G#	4C#	[4g#	[4e	.
=2	=2	=2	=2	=2
*	*	*	*^	*
4A	2.C#	8g#L]	4e]	4.c#\	.
.	.	8f#	.	.	.
8G#L	.	8b	4.e	.	.
8F#J	.	8a	.	8c#\	.
12AL	.	8cc#	.	8g#\L	.
12B	.	.	.	.	.
.	.	8dd#J	8d#	8f#\J	.
12AJ	.	.	.	.	.
=3	=3	=3	=3	=3	=3
2G#	2.C#	8.eeL	2e	8c#\	.
.	.	.	.	8r	.
.	.	16dd#Jk	.	.	.
.	.	4.gg#	.	4r	.
4e	.	.	8cc#L	4r	.
.	.	8gg#	8bJ	.	.
*	*	*	*v	*v	*
=4	=4	=4	=4	=4
4e	2.F#	8gg#L	4a	.
.	.	8ff#	.	.
8d#L	.	8b	4f#	.
8c#J	.	8a	.	.
12aL	.	8cc# 8ee	4cc#	.
12b	.	.	.	.
.	.	8dd#J 8ff#	.	.
12aJ	.	.	.	.
=5	=5	=5	=5	=5
*	*	*	*^	*
8.f##XL	2c#	8.aaL	8.dd#L	4cc#\	.
16g#Jk	.	16gg#Jk	16eeJk	.	.
4g#	.	4ccc#	4ee	4.g#\	.
4rc	4C#	4ccc#	4ee	.	.
.	.	.	.	8b\	.
*v	*v	*	*	*	*
=6	=6	=6	=6	=6
4FFF# 4FF# 4C#	8ccc#L	4ee	8a\	.
.	8bbJ	.	8r	.
4E 4A 4e	12aaL	4cc#	4a\	.
.	12gg#	.	.	.
.	24r	.	.	.
.	24cc#Jk	.	.	.
4G# 4A 4g#	[4ee	[4cc#	4a\	.
=7	=7	=7	=7	=7
4AAA 4AA 4F#	8eeL]	8cc#L]	4r	.
.	8dd#J	8b#XJ	.	.
4F# 4c# 4f#	8cc#L	4cc#	4r	.
.	8f#J	.	.	.
4DD# 4D#	12g#L	4f#	4c#\	.
.	12bn	.	.	.
.	12aJ	.	.	.
=8	=8	=8	=8	=8
2.GG# 2.G#	[4g#	8f#L	2c#\	.
.	.	8eJ	.	.
.	12g#L]	4d#	.	.
.	12f##X	.	.	.
.	12g#J	.	.	.
.	8aL	4f#X	4B#X\	.
.	8g#J	.	.	.
*	*	*v	*v	*
*	*v	*v	*
=9	=9	=9
*^	*	*
.	16qqCC#\LL	.	.
*	*	*^	*
.	16qqGG#\JJ	.	8qc#\	.
2G#	2C#	8.eeL	2e	.
.	.	16dd#Jk	.	.
.	.	4g#	.	.
4G#	4C#	[4g#	[4e	.
=10	=10	=10	=10	=10
*	*	*	*^	*
4A	2.C#	8g#L]	4e]	4.c#\	.
.	.	8f#	.	.	.
8G#L	.	8b	4.e	.	.
8F#J	.	8a	.	8c#\	.
12AL	.	8cc#	.	8g#\L	.
12B	.	.	.	.	.
.	.	8dd#J	8d#	8f#\J	.
12AJ	.	.	.	.	.
=11	=11	=11	=11	=11	=11
2G#	2.C#	8.eeL	2e	8c#\	.
.	.	.	.	8r	.
.	.	16dd#Jk	.	.	.
.	.	4.gg#	.	4r	.
4e	.	.	8cc#L	4r	.
.	.	8gg#	8bJ	.	.
*	*	*	*v	*v	*
=12	=12	=12	=12	=12
4e	2.F#	8gg#L	4a	.
.	.	8ff#	.	.
8d#L	.	8b	4f#	.
8c#J	.	8a	.	.
12aL	.	8cc# 8ee	4cc#	.
12b	.	.	.	.
.	.	8dd#J 8ff#	.	.
12aJ	.	.	.	.
=13	=13	=13	=13	=13
*	*	*	*^	*
8.f##XL	2.c#	8.aaL	8.dd#L	4cc#\	.
16g#Jk	.	16gg#Jk	16eeJk	.	.
4.g#	.	4bb	4ee	4cc#\	.
.	.	4bb	4ee	4g#\	.
8g#	.	.	.	.	.
=14	=14	=14	=14	=14	=14
16qqC#/LL	.	.	.	.	.
16qqG#/JJ	.	.	.	.	.
2c# 2g#	8.rEE	12bbL	4ee	8b\	.
.	.	12aa#X	.	.	.
.	.	.	.	8r	.
.	.	12gg#J	.	.	.
.	16B 16b	.	.	.	.
.	4B 4b	12ff#L	12dd#L	4r	.
.	.	12ee	12cc#	.	.
.	.	12g#J	12eJ	.	.
4e	4B 4b	6dd#	4b	4r	.
.	.	12dd#	.	.	.
*	*	*	*v	*v	*
*	*	*v	*v	*
=15	=15	=15	=15
12BL 12b	4e	12g#L 12dd#	.
12A#X 12a#X	.	12a#X 12dd#	.
12G#J 12g#	.	12bJ 12dd#	.
12F#L 12f#	4B	12dd#L 12gg#	.
12E 12e	.	12cc# 12gg#	.
12BBJ 12B	.	12dd#J 12gg#	.
6D# 6d#	4G#	12ff#L 12bb	.
.	.	12ff# 12bb	.
12C# 12c#	.	12eeJ 12bb	.
*v	*v	*	*
=16	=16	=16
*	*^	*
8GG# 8D# 8G# 8B	12ddd#L	8dd# 8gg#	.
.	12aa#X	.	.
8r	.	8rc	.
.	12bbJ	.	.
4r	12aa#L	4rc	.
.	12dd#	.	.
.	12eeJ	.	.
4r	12dd#L	4rc	.
.	12g#	.	.
.	12d#J	.	.
=17	=17	=17	=17
12GGG#L 12GG#	4raa	4rc	.
12AAAn 12AAn	.	.	.
12GGG#J 12GG#	.	.	.
4EE 4E	6g#	2B 2f#	.
.	12g#	.	.
4DDn 4Dn	12g#L	.	.
.	12a	.	.
.	12g#J	.	.
=18	=18	=18	=18
12GGG#L 12GG#	4..b	2B 2f#	.
12AAA 12AA	.	.	.
12GGG#J 12GG#	.	.	.
4EE 4E	.	.	.
.	16b	.	.
4DDn 4Dn	12bL	4B 4f#	.
.	12a	.	.
.	12g#J	.	.
=19	=19	=19	=19
2CC# 2C#	12f#L	4B 4f#	.
.	12g#	.	.
.	12bJ	.	.
.	6ee	2B 2f#	.
.	12ddn	.	.
4C# 4B 4f#	12aaL	.	.
.	12gg#	.	.
.	12ff#J	.	.
*	*v	*v	*
=20	=20	=20
*^	*	*
4.B	2C# 2e#X	12gg#L	.
.	.	12ddn	.
.	.	12cc#J	.
.	.	12eenL	.
.	.	12dd	.
8dn	.	.	.
.	.	12g#J	.
12dL	4F# 4f#	12bL	.
12c#	.	12a	.
24AJk	.	24f#Jk	.
24rc	.	24r	.
*v	*v	*	*
=21	=21	=21
*	*^	*
12DDD#XL 12DD#X	4raa	4rc	.
12EEE 12EE	.	.	.
12DDD#J 12DD#	.	.	.
4BBB 4BB	12d#XL	2F# 2c#	.
.	12e	.	.
.	12d#J	.	.
4AAA 4AA	12d#L	.	.
.	12c#	.	.
.	12d#J	.	.
=22	=22	=22	=22
12DDD#L 12DD#	[4f#	2F# 2c#	.
12EEE 12EE	.	.	.
12DDD#J 12DD#	.	.	.
4BBB 4BB	6f#]	.	.
.	12f#	.	.
4AAA 4AA	12f#L	4F# 4c#	.
.	12e	.	.
.	12d#J	.	.
=23	=23	=23	=23
2.GGG# 2.GG#	12c#L	4F# 4c#	.
.	12d#	.	.
.	12f#J	.	.
.	6b	2F# 2c#	.
.	12a	.	.
.	12ff#L	.	.
.	12ee	.	.
.	12dd#J	.	.
=24	=24	=24	=24
16D#LL	12eeL	2c#	.
16GG#	.	.	.
.	12dd#	.	.
16GG#	.	.	.
.	12g#J	.	.
16GGG#JJ	.	.	.
16ELL	12bL	.	.
16GG#	.	.	.
.	12a	.	.
16GG#	.	.	.
.	12f##XJ	.	.
16GGG#JJ	.	.	.
16F#XLL	12g#L	4B#X	.
16GG#	.	.	.
.	12dn	.	.
16GG#	.	.	.
.	12d#XJ	.	.
16GGG#JJ	.	.	.
*	*v	*v	*
*	*clefF4	*
=25	=25	=25
*^	*^	*
*	*	*	*^	*
2.GG#	2.CC#	8.eL	8c#	2E\	.
.	.	.	8rEE	.	.
.	.	16d#Jk	.	.	.
.	.	4G#	4rEE	.	.
.	.	4G#	4rEE	4E\	.
*	*	*	*v	*v	*
*	*	*v	*v	*
16qqFF##X/LL	.	.	.
16qqGG#/	.	.	.
16qqBB/JJ	.	.	.
=26	=26	=26	=26
*	*	*^	*
4AA	2.CC#	8G#L	4E	.
.	.	8F#	.	.
8GG#L	.	8B	[4E	.
8FF#XJ	.	8A	.	.
12AAL	.	8c#	8EL] 8G#	.
12BB	.	.	.	.
.	.	8d#J	8D#J 8F#	.
12AAJ	.	.	.	.
=27	=27	=27	=27	=27
*	*	*	*^	*
2GG#	2.CC#	8.eL	2E	8C#\	.
.	.	.	.	8r	.
.	.	16d#Jk	.	.	.
.	.	4.g#	.	4r	.
4E	.	.	8c#L	4r	.
.	.	8g#	8BJ	.	.
*	*	*	*v	*v	*
=28	=28	=28	=28	=28
4E	2.FF#	8g#L	4A	.
.	.	8f#	.	.
8D#L	.	8B	4F#	.
8C#J	.	8A	.	.
12AL	.	8e	8c#L	.
12B	.	.	.	.
.	.	8f#J	8d#J	.
12AJ	.	.	.	.
*	*	*v	*v	*
*	*	*clefG2	*
=29	=29	=29	=29
*	*	*^	*
*	*	*	*^	*
8.F##XL	2C#	8.aL	8.d#L	4r	.
16G#Jk	.	16g#Jk	16eJk	.	.
4G#	.	4ee	4e	4c#\	.
4rc	4C#	4ee	4b	4e\	.
*	*	*	*v	*v	*
=30	=30	=30	=30	=30
8.FFF# 8.FF# 8.C#	4rEE	12eeL	4e 4a	.
.	.	12dd#	.	.
.	.	12cc#J	.	.
16E 16e	.	.	.	.
4E 4e	4rEE	12bL	12g#L	.
.	.	12a	12f#	.
.	.	12c#J	12AJ	.
4E 4e	4A	6g#	4e	.
.	.	12g#	.	.
*	*	*v	*v	*
=31	=31	=31	=31
12EL 12e	4A	12c#L 12g#	.
12D# 12d#	.	12d# 12g#	.
12C#J 12c#	.	12eJ 12g#	.
12BBL 12B	4E	12g#L 12cc#	.
12AA 12A	.	12f# 12cc#	.
12EEJ 12E	.	12g#J 12cc#	.
6GG# 6G#	4C#	12bL 12ee	.
.	.	12b 12ee	.
12FF# 12F#	.	12aJ 12ee	.
*v	*v	*	*
=32	=32	=32
*	*^	*
8CC# 8GG# 8E	12gg#L	8g#	.
.	12dd#	.	.
8r	.	8rc	.
.	12eeJ	.	.
4r	12dd#L	4rc	.
.	12g#	.	.
.	12aJ	.	.
4r	12g#L	4rc	.
.	12b#X	.	.
.	12cc#J	.	.
=33	=33	=33	=33
*^	*	*	*
4CC# 4C#	4rEE	8.eeL	4rc	.
.	.	16ddnJk	.	.
4A	4C#	4a	4f#	.
4G#	4C#	4a	[4e	.
=34	=34	=34	=34	=34
*	*	*	*^	*
2F#	2.C#	8aL	4e]	4r	.
.	.	8g#	.	.	.
.	.	8b	4.e	4r	.
.	.	8a	.	.	.
12AL	.	8cc#	.	8g#\L	.
12B	.	.	.	.	.
.	.	8dd#J	8d#	8f#\J	.
12AJ	.	.	.	.	.
=35	=35	=35	=35	=35	=35
2G#	2.C#	8.eeL	2e	8c#\	.
.	.	.	.	8r	.
.	.	16dd#Jk	.	.	.
.	.	4.gg#	.	4r	.
4e	.	.	8cc#L	4r	.
.	.	8gg#	8bJ	.	.
*	*	*	*v	*v	*
=36	=36	=36	=36	=36
8eL	4F#	8gg#L	4a	.
8d#J	.	8ff#J	.	.
4e	4C#	4ee	4g#	.
4rc	4rEE	8b#XL	4rc	.
.	.	8cc#J	.	.
=37	=37	=37	=37	=37
4rc	4rEE	8.eeL	4rc	.
.	.	16ddnJk	.	.
4F#	4C#	4a	4dn	.
4F#	4Cn	4a	4d	.
=38	=38	=38	=38	=38
2F#	2.BB	8aL	4dn	.
.	.	8g#	.	.
.	.	8b	4d#X	.
.	.	8a	.	.
4B	.	8ddn	4a	.
.	.	8dd#XJ	.	.
=39	=39	=39	=39	=39
4rc	4rEE	8.ff#L	4g#	.
.	.	16eeJk	.	.
4G#	4D#	4b	4e	.
4G#	4Dn	4b	4e	.
=40	=40	=40	=40	=40
2.G#	2.C#	8bL	4.e	.
.	.	8a#X	.	.
.	.	8cc#	.	.
.	.	8b	4.e#X	.
.	.	8ee#X	.	.
.	.	8ee#J	.	.
=41	=41	=41	=41	=41
8G#L	2.Cn	8.ffnL	2.fn	.
8AnJ	.	.	.	.
.	.	16eeJk	.	.
4e	.	4.g#	.	.
8dnL	.	.	.	.
8cnJ	.	8an	.	.
=42	=42	=42	=42	=42
2A	2.Cn	8ddnL	2.e	.
.	.	8ccnJ	.	.
.	.	4.f#X	.	.
4B-X	.	.	.	.
.	.	8gn	.	.
=43	=43	=43	=43	=43
2Bn	2BB	8g#XL	2.e	.
.	.	8f#	.	.
.	.	8a	.	.
.	.	8g#	.	.
4rc	4B 4e 4g#	8b	.	.
.	.	8bJ	.	.
*	*	*v	*v	*
=44	=44	=44	=44
2B 2d# 2g#	4rEE	8bL	.
.	.	8a#X	.
.	4rEE	8cc#	.
.	.	8bJ	.
8BL	4An 4d#	4gg#	.
8BJ	.	.	.
=45||	=45||	=45||	=45||
*	*^	*	*
4rc	2.B	4r	4r	.
4g#	.	2A\	2dd#	.
4f#	.	.	.	.
=46	=46	=46	=46	=46
[2.e	4B	2G#\	8eeL	.
.	.	.	8dd#J	.
.	[2c#	.	4.cc#	.
.	.	[4Gn\	.	.
.	.	.	8b	.
=47	=47	=47	=47	=47
4.e]	4.c#]	4G\]	4.a	.
.	.	[2F#\	.	.
[4.a	[4.e	.	8gg#X	.
.	.	.	8ff#L	.
.	.	.	8cc#J	.
=48	=48	=48	=48	=48
4a]	4e]	4F#\]	8dd#L	.
.	.	.	8cc#J	.
4g#	4d#	4B\	4b	.
[4f#	8c#L	[4A\	8cc#L	.
.	8BJ	.	8dd#J	.
=49	=49	=49	=49	=49
4f#]	4B	4A\]	4bb	.
[2f#	[2B	4Gn\	8bL	.
.	.	.	8ff#J	.
.	.	[4G#X\	8.eeL	.
.	.	.	16ddnJk	.
=50	=50	=50	=50	=50
4f#]	4B]	4G#\]	4ddn	.
4f#	2B	[2C#\	8r	.
.	.	.	8cc#	.
[4e#X	.	.	8ddL	.
.	.	.	8cc#J	.
=51	=51	=51	=51	=51
4e#]	4A	4C#\]	4aa	.
[2en	[2A	4Fn\	8aL	.
.	.	.	8ee	.
.	.	[4F#X\	8ddn	.
.	.	.	8ccnJ	.
=52	=52	=52	=52	=52
4e]	4A]	4F#\]	4ccn	.
4e	2A	[2BB/	8r	.
.	.	.	8b	.
[4d#X	.	.	8cc#XL	.
.	.	.	8bJ	.
=53	=53	=53	=53	=53
*	*	*	*^	*
4d#]	4G#	4BB/]	4gg#	4rc	.
[2e	4G#	4r	8bL	4b	.
.	.	.	8eeJ	.	.
.	[4F#	4r	8.dd#L	[4a#X	.
.	.	.	16cc#Jk	.	.
*	*v	*v	*	*	*
=54	=54	=54	=54	=54
4e]	4F#]	4cc#	4a#]	.
4.e	4G#	8bL	4b	.
.	.	8ee	.	.
.	8F#	8dd#	4a#X	.
8rc	8rEE	8cc#J	.	.
*v	*v	*	*	*
=55	=55	=55	=55
8.EL 8.e	2b#X	2g#	.
16D#Jk 16d#	.	.	.
4GG# 4G#	.	.	.
4GG# 4G#	4raa	4rc	.
=56	=56	=56	=56
4r	4raa	4rc	.
4G#	8bnL	4b	.
.	8ee	.	.
4A#X	8gg#	4cc#	.
.	8ff#J	.	.
*	*v	*v	*
=57	=57	=57
*^	*	*
*	*^	*	*
4rc	2.B	4r	4r	.
4g#	.	2An\	2dd#	.
4f#	.	.	.	.
=58	=58	=58	=58	=58
[2.e	4B	2G#\	8eeL	.
.	.	.	8dd#J	.
.	[2c#	.	4.cc#	.
.	.	[4Gn\	.	.
.	.	.	8b	.
=59	=59	=59	=59	=59
4.e]	4.c#]	4G\]	4.a	.
.	.	[2F#\	.	.
[4.a	[4.e	.	8gg#X	.
.	.	.	8ff#L	.
.	.	.	8cc#J	.
=60	=60	=60	=60	=60
4a]	4e]	4F#\]	8dd#L	.
.	.	.	8cc#J	.
4g#	4d#	4B\	4b	.
[4f#	8c#L	[4A\	8cc#L	.
.	8BJ	.	8dd#J	.
=61	=61	=61	=61	=61
4f#]	4B	4A\]	4bb	.
[2f#	[2B	4Gn\	8bL	.
.	.	.	8ff#J	.
.	.	[4G#X\	8eeL	.
.	.	.	8ddnJ	.
=62	=62	=62	=62	=62
4f#]	4B]	4G#\]	4ddn	.
4f#	2B	[2C#\	8r	.
.	.	.	8cc#	.
[4e#X	.	.	8ddL	.
.	.	.	8cc#J	.
=63	=63	=63	=63	=63
4e#]	4A	4C#\]	4aa	.
[2en	[2A	4Fn\	8aL	.
.	.	.	8ee	.
.	.	[4F#X\	8ddn	.
.	.	.	8ccnJ	.
=64	=64	=64	=64	=64
4e]	4A]	4F#\]	4ccn	.
4e	2A	[2BB/	8r	.
.	.	.	8b	.
[4d#X	.	.	8cc#XL	.
.	.	.	8bJ	.
=65	=65	=65	=65	=65
*	*	*	*^	*
4d#]	4G#	4BB/]	4gg#	4rc	.
[2e	4G#	4r	8bL	4b	.
.	.	.	8eeJ	.	.
.	[4F#	4r	8.dd#L	[4a#X	.
.	.	.	16cc#Jk	.	.
*	*v	*v	*	*	*
=66	=66	=66	=66	=66
4e]	4F#]	4cc#	4a#]	.
[2e	4G#	8bL	4b	.
.	.	8eeJ	.	.
.	[4F#	8.dd#L	[4a#X	.
.	.	16cc#Jk	.	.
=67	=67	=67	=67	=67
4e]	4F#]	4cc#	4a#]	.
2e	4G#	8bL	4b	.
.	.	8ee	.	.
.	4A#X	8gg#	4cc#	.
.	.	8ff#J	.	.
=68	=68	=68	=68	=68
4e	2B	2ff#	4cc#	.
4d#	.	.	4b	.
4rc	4rEE	4raa	4f#	.
*v	*v	*	*	*
=69	=69	=69	=69
8.AAL 8.A	4raa	4rc	.
16GG#Jk 16G#	.	.	.
4CC# 4C#	8cc#L	4a	.
.	8gg#	.	.
4CC# 4C#	8ff#	4a 4cc#	.
.	8eeJ	.	.
=70	=70	=70	=70
8.C#L 8.c#	4raa	4rc	.
16BBJk 16B	.	.	.
4FF# 4F#	8aL	4f#	.
.	8ee	.	.
4FF# 4F#	8dd#	4f# 4a	.
.	8cc#J	.	.
=71	=71	=71	=71
8.F#L 8.f#	4raa	4rc	.
16EJk 16e	.	.	.
4AA 4A	8f#L	4c#	.
.	8cc#	.	.
4AA 4A	8b	4c# 4f#	.
.	8aJ	.	.
=72	=72	=72	=72
2BB 2B	8g#L	2.d#	.
.	8e#X	.	.
.	8g#	.	.
.	8f#J	.	.
8AAL 8A	4b	.	.
8GG#J 8G#	.	.	.
=73	=73	=73	=73
8.AAL 8.A	4raa	4rc	.
16GG#Jk 16G#	.	.	.
4CC# 4C#	8cc#L	4a	.
.	8gg#	.	.
4CC# 4C#	8ff#	4a 4cc#	.
.	8eenJ	.	.
=74	=74	=74	=74
8.C#L 8.c#	4raa	4rc	.
16BBJk 16B	.	.	.
4FF# 4F#	8aL	4f#	.
.	8ee	.	.
4FF# 4F#	8dd#	4f# 4a	.
.	8cc#J	.	.
=75	=75	=75	=75
8.F#L 8.f#	4raa	4rc	.
16EJk 16e	.	.	.
4AA 4A	8f#L	4c#	.
.	8cc#	.	.
4AA 4A	8b	4c# 4f#	.
.	8aJ	.	.
=76	=76	=76	=76
2.BB 2.B	8g#L	2.d#	.
.	8e#X	.	.
.	8g#	.	.
.	8f#	.	.
.	8cc#	.	.
.	8bJ	.	.
*	*v	*v	*
=77	=77	=77
*^	*	*
*	*^	*	*
4rc	2.B	4r	4r	.
4g#	.	2A\	2dd#	.
4f#	.	.	.	.
=78	=78	=78	=78	=78
[2.e	4B	2G#\	8eeL	.
.	.	.	8dd#J	.
.	[2c#	.	4.cc#	.
.	.	[4Gn\	.	.
.	.	.	8b	.
=79	=79	=79	=79	=79
4.e]	4.c#]	4G\]	4.a	.
.	.	[2F#\	.	.
[4.a	[4.e	.	8gg#	.
.	.	.	8ff#L	.
.	.	.	8cc#J	.
=80	=80	=80	=80	=80
4a]	4e]	4F#\]	8dd#L	.
.	.	.	8cc#J	.
4g#	4d#	4B\	4b	.
[4f#	8c#L	[4A\	8cc#L	.
.	8BJ	.	8dd#J	.
=81	=81	=81	=81	=81
4f#]	4B	4A\]	4bb	.
[2f#	[2B	4Gn\	8bL	.
.	.	.	8ff#J	.
.	.	[4G#X\	8eeL	.
.	.	.	8ddnJ	.
=82	=82	=82	=82	=82
4f#]	4B]	4G#\]	4ddn	.
4f#	2B	[2C#\	8r	.
.	.	.	8cc#	.
[4e#X	.	.	8ddL	.
.	.	.	8cc#J	.
=83	=83	=83	=83	=83
4e#]	4A	4C#\]	4aa	.
[2en	[2A	4Fn\	8aL	.
.	.	.	8eeJ	.
.	.	[4F#X\	8ddnL	.
.	.	.	8ccnJ	.
=84	=84	=84	=84	=84
4e]	4A]	4F#\]	4ccn	.
4e	2A	[2BB/	8r	.
.	.	.	8b	.
[4d#X	.	.	8cc#XL	.
.	.	.	8bJ	.
=85	=85	=85	=85	=85
*	*	*	*^	*
4d#]	4G#	4BB/]	4gg#	4rc	.
[2e	4G#	4r	8bL	4b	.
.	.	.	8eeJ	.	.
.	[4F#	4r	8.dd#L	[4a#X	.
.	.	.	16cc#Jk	.	.
*	*v	*v	*	*	*
=86	=86	=86	=86	=86
4e]	4F#]	4cc#	4a#]	.
[2dn	4Fn	8anL	4a	.
.	.	8ddnJ	.	.
.	[4E	8.cc#L	[4g#	.
.	.	16bJk	.	.
=87	=87	=87	=87	=87
4d]	4E]	4b	4g#]	.
2c#	4E	8g#L	4g#	.
.	.	8cc#	.	.
.	4D#X	8b	4f##X	.
.	.	8aJ	.	.
=88	=88	=88	=88	=88
2.G#	2.GG#	8aL	2B#X 2f#X	.
.	.	8f##X	.	.
.	.	8a	.	.
.	.	8g#	.	.
.	.	8ddn	4f#X 4b#X	.
.	.	8dd#XJ	.	.
*	*	*v	*v	*
=89	=89	=89	=89
.	16qqCC#\LL	.	.
.	16qqGG#\JJ	.	.
*	*	*^	*
*	*	*	*^	*
2G#	2C#	8.eL 8.ee	8cc#	2e\	.
.	.	.	8rc	.	.
.	.	16d#Jk 16dd#	.	.	.
.	.	4G# 4g#	4rc	.	.
4G#	4C#	4G# 4g#	4rc	4e\	.
=90	=90	=90	=90	=90	=90
4A	2.C#	8G#L 8g#	4e	4.c#\	.
.	.	8F#J 8f#	.	.	.
8G#L	.	8BL 8b	4e	.	.
8F#J	.	8AJ 8a	.	8c#\	.
12AL	.	8c#L 8cc#	8g#L	8e\L	.
12B	.	.	.	.	.
.	.	8d#J 8dd#	8f#J	8d#\J	.
12AJ	.	.	.	.	.
*	*	*	*v	*v	*
=91	=91	=91	=91	=91
2G#	2.C#	8.eL 8.ee	8c#	.
.	.	.	8rc	.
.	.	16d#Jk 16dd#	.	.
.	.	4.g# 4.gg#	4rc	.
4e	.	.	8cc#L	.
.	.	8g# 8gg#	8bJ	.
=92	=92	=92	=92	=92
4e	2.F#	8g#L 8gg#	4a	.
.	.	8f# 8ff#	.	.
8d#L	.	8B 8b	4f#	.
8c#J	.	8A 8a	.	.
12aL	.	8e 8cc# 8ee	4cc#	.
12b	.	.	.	.
.	.	8f#J 8dd# 8ff#	.	.
12aJ	.	.	.	.
=93	=93	=93	=93	=93
8.f##XL	2c#	8.aL 8.dd# 8.aa	4cc#	.
16g#Jk	.	16g#Jk 16ee 16gg#	.	.
4g#	.	4cc# 4ee 4ccc#	4.g#	.
4rc	4C#	4cc# 4ee 4ccc#	.	.
.	.	.	8b	.
*v	*v	*	*	*
=94	=94	=94	=94
4FFF# 4FF# 4C#	8cc#L 8ee 8ccc#	8a	.
.	8bJ 8bb	8rc	.
4E 4A 4e	12aL 12aa	4a 4cc#	.
.	12.g# 12.gg#	.	.
.	24c#Jk 24cc#	.	.
4G# 4A 4g#	4e 4ee	4a 4cc#	.
=95	=95	=95	=95
4AAA 4AA 4F#	8eL 8cc# 8ee	4rc	.
.	8d#J 8b#X 8dd#	.	.
4F# 4f#	8c#L 8cc#	4rc	.
.	8F#J 8f#	.	.
4DD# 4D#	12G#L 12g#	4c# 4f#	.
.	12Bn 12bn	.	.
.	12AJ 12a	.	.
=96	=96	=96	=96
*	*	*^	*
2.GG# 2.G#	[4G# [4g#	8f#L	2c#\	.
.	.	8eJ	.	.
.	12G#L] 12g#]	4d#	.	.
.	12F##X 12f##X	.	.	.
.	12G#J 12g#	.	.	.
.	6A 6a	4f#X	4B#X\	.
.	12G# 12g#	.	.	.
*	*	*v	*v	*
*	*v	*v	*
=97	=97	=97
*^	*	*
.	16qqCC#\LL	.	.
*	*	*^	*
.	16qqGG#\JJ	.	8qc#\	.
2G#	2C#	8.eL 8.ee	2e	.
.	.	16d#Jk 16dd#	.	.
.	.	4G# 4g#	.	.
4G#	4C#	4G# 4g#	4e	.
=98	=98	=98	=98	=98
*	*	*	*^	*
4A	2.C#	8G#L 8g#	4e	4.c#\	.
.	.	8F# 8f#	.	.	.
8G#L	.	8B 8b	4e	.	.
8F#J	.	8A 8a	.	8c#\	.
12AL	.	8c# 8cc#	8g#L	8e\L	.
12B	.	.	.	.	.
.	.	8d#J 8dd#	8f#J	8d#\J	.
12AJ	.	.	.	.	.
*	*	*	*v	*v	*
=99	=99	=99	=99	=99
2G#	2.C#	8.eL 8.ee	8c#	.
.	.	.	8rc	.
.	.	16d#Jk 16dd#	.	.
.	.	4.g# 4.gg#	4rc	.
4e	.	.	8cc#L	.
.	.	8g# 8gg#	8bJ	.
=100	=100	=100	=100	=100
4e	2.F#	8g#L 8gg#	4a	.
.	.	8f# 8ff#	.	.
8d#L	.	8B 8b	4f#	.
8c#J	.	8A 8a	.	.
12aL	.	8e 8cc# 8ee	4cc#	.
12b	.	.	.	.
.	.	8f#J 8dd# 8ff#	.	.
12aJ	.	.	.	.
=101	=101	=101	=101	=101
8.f##XL	2c#	8.aL 8.dd# 8.aa	4cc#	.
16g#Jk	.	16g#Jk 16ee 16gg#	.	.
4g#	.	4ee 4eee	4cc#	.
4rc	4C#	4ee 4eee	4bb	.
=102	=102	=102	=102	=102
8.FFF# 8.FF# 8.C#	4rEE	12eeL 12eee	4aa	.
.	.	12dd# 12ddd#	.	.
.	.	12cc#J 12ccc#	.	.
16E 16e	.	.	.	.
4E 4e	4rEE	12bL 12gg# 12bb	4rc	.
.	.	12a 12ff# 12aa	.	.
.	.	12c#J 12a 12cc#	.	.
4E 4e	4A	6g# 6gg#	4ee	.
.	.	12g# 12gg#	.	.
*v	*v	*	*	*
*	*v	*v	*
=103	=103	=103
12EL 12A 12e	12g#L 12cc# 12gg#	.
12D# 12A 12d#	12g# 12dd# 12gg#	.
12C#J 12A 12c#	12g#J 12ee 12gg#	.
12BBL 12E 12B	12cc#L 12gg# 12ccc#	.
12AA 12E 12A	12cc# 12ff# 12ccc#	.
12EEJ 12E	12cc#J 12gg# 12ccc#	.
6GG# 6C# 6G#	12eeL 12bb 12eee	.
.	12ee 12bb 12eee	.
12FF# 12C# 12F#	12eeJ 12aa 12eee	.
=104	=104	=104
8CC# 8GG# 8E	12gg#L 12ccc# 12ggg#	.
.	12dd# 12ddd#	.
8r	.	.
.	12eeJ 12eee	.
4r	12dd#L 12ddd#	.
.	12g# 12gg#	.
.	12aJ 12aa	.
4r	12g#L 12gg#	.
.	12b#X	.
.	12cc#J	.
=105	=105	=105
*^	*^	*
4CC# 4C#	4rEE	8.eeL	4rc	.
.	.	16ddnJk	.	.
4A	4C#	4a	4f#	.
4G#	4C#	4a	[4e	.
=106	=106	=106	=106	=106
*	*	*	*^	*
2F#	2.C#	8aL	4e]	4r	.
.	.	8g#	.	.	.
.	.	8b	4.e	4r	.
.	.	8a	.	.	.
12AL	.	8cc#	.	8g#\L	.
12B	.	.	.	.	.
.	.	8dd#XJ	8d#	8f#\J	.
12AJ	.	.	.	.	.
=107	=107	=107	=107	=107	=107
2G#	2.C#	8.eeL	2e	8c#\	.
.	.	.	.	8r	.
.	.	16dd#Jk	.	.	.
.	.	4.gg#	.	4r	.
4e	.	.	8cc#L	4r	.
.	.	8gg#	8bJ	.	.
*	*	*	*v	*v	*
=108	=108	=108	=108	=108
8eL	4F#	8gg#L	4a	.
8d#J	.	8ff#J	.	.
4e	4C#	4ee	4g#	.
4rc	4rEE	8b#XL	4rc	.
.	.	8cc#J	.	.
=109	=109	=109	=109	=109
4rc	4rEE	8.eeL	4rc	.
.	.	16ddnJk	.	.
4F#	4C#	4a	4dn	.
4F#	4Cn	4a	4d	.
=110	=110	=110	=110	=110
2F#	[2.BB	8aL	4dn	.
.	.	8g#	.	.
.	.	8b	4d#X	.
.	.	8a	.	.
4A	.	8ddn	4f#	.
.	.	8dd#XJ	.	.
=111	=111	=111	=111	=111
4Gn	4BB]	8eeL	4e	.
.	.	8ddnJ	.	.
4E	4BB	4gn	4cn	.
4E	4BB-X	4g	4c	.
=112	=112	=112	=112	=112
2E	2.AA	8gnL	4cn	.
.	.	8f#	.	.
.	.	8a	4c#X	.
.	.	8g	.	.
4Gn	.	8ccn	4e	.
.	.	8cc#XJ	.	.
=113	=113	=113	=113	=113
4Fn	4AA	8ddnL	4dn	.
.	.	8ccnJ	.	.
4Dn	4AA-X	4fn	4B-X	.
4D	[4GGn	4f	4Bn	.
=114	=114	=114	=114	=114
4E-X	4GG]	8ccnL	4cn	.
.	.	8b-XJ	.	.
4Cn	4GG-X	4e-X	4A-X	.
4C	4FFn	4e-	4An	.
=115	=115	=115	=115	=115
2.C#X	2.EEn	8.aL	2.A	.
.	.	16g#XJk	.	.
.	.	4c#X	.	.
.	.	4c#	.	.
*	*	*clefF4	*	*
=116	=116	=116	=116	=116
[2.AA	2EE	[2.c#	2G#	.
.	4DDn	.	4F#	.
=117	=117	=117	=117	=117
*	*	*	*^	*
2AA]	4DDn	8c#L]	2.F#	4r	.
.	.	8B	.	.	.
.	4DD#X	8c#	.	4r	.
.	.	8B#X	.	.	.
4GG#	4GGG#	8dn	.	4B#\	.
.	.	8d#XJ	.	.	.
*	*	*	*v	*v	*
=118	=118	=118	=118	=118
2.GG#	2.CC#	8.c#L 8.e	2.E	.
.	.	16d#Jk	.	.
.	.	2G#	.	.
*v	*v	*	*	*
*	*v	*v	*
==	==	==
*-	*-	*-
!!!system-decoration: {(*)}
!!!ENC: Bryan Jacob Bell
!!!END: November 2021 to April 2022
!!!PED: Günter Philipp
!!!PTL: Ausgewählte Klavierwerke (Edition Peters)
